X:559
T: WAER ICH EIN MUNTERES VOEGELEIN
N: F1102
O: Europa, Mitteleuropa, Deutschland
R: Natur - Lied
M: 2/4
L: 1/16
K: G
D2 | B2BAG2G2 | dedcB2
B2 | A3AGFED | d2B2G2
B2 | A3BA2A2 | d^cdcd2
=c2 | B3BdcBA | G2BAG2
B2 | c2z4^d2 | e2z4
g2 | d3BdcAB | G2z4
^c2 | d2z4^c2 | d2z4
d2 | B3BA2A2 | G2z4

@@@ Tune index: 5990
